X: 17168
T: Henchey's Delight
R: jig
M: 6/8
K: Gmajor
|:BAB GFG|ADE F2 G|AFA fed|cAG FGA|
BdB GFG|ADE F2 G|AFA fed|1 cAF G2:|2 cAF GBd||
|:~g3 afd|gdg a2 d|gdg b2 g|a2 g fga|
geg fde|fed ^cde|faf ded|1 cAF GBd:|2 cAF G2 B||
|:dge dBG|B/c/dB cAF|dDd faf|def gfg|
agf gfe|fed ^cde|faf ded|1 cAF G2 B:|2 cAF G2 A||

